X: 81
T:Life Let Us Cherish. GS.081
M:6/8
L:1/8
Q:120
S:George Spencer m/s, Leeds,1831
R:Jig
O:England
A:Leeds
H:1831
Z:vmp.Cherri Graebe
K:G major
B3 cBc | (d2g) g2z | G3 AGA | BdB A3 | B3{d} cBc |! (d2g) {ga}
 g2 z | B3
 {B} AGA | (G3"pause/Fine"G2) :||
d | d2B ABc | d2B G2d | !d2B ABc | {Bc} d2BG2d | e2c g2e | d2B g2d | d>e
d dcB | "D.C."(B3 A2) ||
